X:9188
T:Ladys Breast Nott. JC.002
T:Bonny Breast Knots,aka. JC.002
M:4/4
L:1/8
Q:120
S:John Clare,Poet,Helpston. (1793-1864)
R:Reel
O:England
A:Northamptonshire
N:No Time signature given. Generally written as 4/4,
N:except b2, b5. G.D...Bar 2 ( E2e2d2c2 B2BA ) in ms,. Bar5 in time sig
N:5/4 in Deacon (fdfd fagf e2 in ms) Bar 6 in4/4, (cec fgf e2 in ms)
N:However,on this occassion I have felt justified in editing it all to
N:4/4, . CGP.
Z:P Headford
K:D
"NB"GBBG FAAF|
"crots in ms"EedcB2BA|
GBBG FAAF|dBAGF2D2:|!
|:fdfd fagf|ecec fgfe|
fdgd faac|GAAGF2ED:|]
W:Song text exists. See Deacon.


